X:176
T: WIE HERRLICH LEUCHTET MIR DIE NATUR
N: B0210
O: Europa, Mitteleuropa, Deutschland
R: Jahreszeiten - Lied, Fruehling
M: 3/4
L: 1/8
K: F
ccc | c2AFGA | F2z
CFA | Gccede | c2z
cde | fAAABc | d2z
Bcd | cfcABG | F2z

